dist/images/ico-cup.svg

<svg xmlns="http://www.w3.org/2000/svg" xmlns:xlink="http://www.w3.org/1999/xlink" preserveAspectRatio="none" width="100" height="100" viewBox="0 0 100 100"><defs><path fill="#fff" d="M81.1 45v-.15H16.3V45q0 18.4 9.5 31.45T48.7 89.5q13.4 0 22.9-13.05Q81.1 63.4 81.1 45M36.25 79q-6.95-4.95-9.45-17.05-.75-3.8-1-7.85l-.1-3.3 6.85.15q-.45 11.2.6 17.25.45 2.6 3.1 10.8z" id="a"/><path fill="#fff" d="M45.35 11.55q-3 6.55-3.65 10.7-1 6.1 2.15 9.6 2.95 3.25 2 7.85-.25 1.2-.65 2.25 2.75-5.7 2.85-9.45.05-2.95-1.7-5.85-2.65-4.35-1-15.1M59.1.65Q55 6.7 54.8 15.9q-.2 7.6 1.95 13.1 1.45 3.75 1.05 9.15-.2 2.7-.7 4.65 3.2-5.4 3.95-10.3.85-5.5-1.45-9.7-2.2-4.1-2.15-10.15.05-4.8 1.65-12m30 69.75q2.05-5.3.6-10.15v.05q-1.5-5.15-5.9-6.85-4.45-1.8-9.1.9-4.35 2.55-6.4 7.85-2.1 5.25-.65 10.1 1.5 5.15 6 6.9 4.35 1.75 9-1v.05q4.35-2.6 6.45-7.85m-2.65-9.15q1.1 3.75-.5 7.9-1.65 4.1-5.05 6.15-3.1 1.85-6 .75-2.95-1.2-4-4.7-1.1-3.8.55-7.9 1.6-4.15 5-6.2l-.05.05q3.15-1.85 6.15-.7 2.85 1.15 3.9 4.65z" id="b"/><path fill="#fff" d="M28.75 90.95q0 1.5 5.75 2.55 5.75 1.05 13.9 1.05t13.9-1.05q5.75-1.05 5.75-2.55v-.2q3.7-.25 7.05-.55 10.9-1 10.9-2.45 0-1.45-10.9-2.45-10.9-1-26.3-1t-26.3 1q-10.9 1-10.9 2.45 0 1.45 10.9 2.45 3 .25 6.3.5-.05.1-.05.25z" id="c"/></defs><use xlink:href="#a"/><use xlink:href="#b"/><use xlink:href="#c"/></svg>

<svg xmlns="http://www.w3.org/2000/svg" version="1.1" xmlns:xlink="http://www.w3.org/1999/xlink" preserveAspectRatio="none" x="0px" y="0px" width="100px" height="100px" viewBox="0 0 100 100">
<defs>
<g id="Layer2_0_FILL">
<path fill="#FFFFFF" stroke="none" d="
M 81.1 45
L 81.1 44.85 16.3 44.85 16.3 45
Q 16.3 63.4 25.8 76.45 35.3 89.5 48.7 89.5 62.1 89.5 71.6 76.45 81.1 63.4 81.1 45
M 36.25 79
Q 29.3 74.05 26.8 61.95 26.05 58.15 25.8 54.1
L 25.7 50.8 32.55 50.95
Q 32.1 62.15 33.15 68.2 33.6 70.8 36.25 79 Z"/>
</g>

<g id="Layer1_0_FILL">
<path fill="#FFFFFF" stroke="none" d="
M 45.35 11.55
Q 42.35 18.1 41.7 22.25 40.7 28.35 43.85 31.85 46.8 35.1 45.85 39.7 45.6 40.9 45.2 41.95 47.95 36.25 48.05 32.5 48.1 29.55 46.35 26.65 43.7 22.3 45.35 11.55
M 59.1 0.65
Q 55 6.7 54.8 15.9 54.6 23.5 56.75 29 58.2 32.75 57.8 38.15 57.6 40.85 57.1 42.8 60.3 37.4 61.05 32.5 61.9 27 59.6 22.8 57.4 18.7 57.45 12.65 57.5 7.85 59.1 0.65
M 89.1 70.4
Q 91.15 65.1 89.7 60.25
L 89.7 60.3
Q 88.2 55.15 83.8 53.45 79.35 51.65 74.7 54.35 70.35 56.9 68.3 62.2 66.2 67.45 67.65 72.3 69.15 77.45 73.65 79.2 78 80.95 82.65 78.2
L 82.65 78.25
Q 87 75.65 89.1 70.4
M 86.45 61.25
Q 87.55 65 85.95 69.15 84.3 73.25 80.9 75.3 77.8 77.15 74.9 76.05 71.95 74.85 70.9 71.35 69.8 67.55 71.45 63.45 73.05 59.3 76.45 57.25
L 76.4 57.3
Q 79.55 55.45 82.55 56.6 85.4 57.75 86.45 61.25 Z"/>
</g>

<g id="Layer0_0_FILL">
<path fill="#FFFFFF" stroke="none" d="
M 28.75 90.95
Q 28.75 92.45 34.5 93.5 40.25 94.55 48.4 94.55 56.55 94.55 62.3 93.5 68.05 92.45 68.05 90.95 68.05 90.85 68.05 90.75 71.75 90.5 75.1 90.2 86 89.2 86 87.75 86 86.3 75.1 85.3 64.2 84.3 48.8 84.3 33.4 84.3 22.5 85.3 11.6 86.3 11.6 87.75 11.6 89.2 22.5 90.2 25.5 90.45 28.8 90.7 28.75 90.8 28.75 90.95 Z"/>
</g>
</defs>

<g transform="matrix( 1, 0, 0, 1, 0,0) ">
<use xlink:href="#Layer2_0_FILL"/>
</g>

<g transform="matrix( 1, 0, 0, 1, 0,0) ">
<use xlink:href="#Layer1_0_FILL"/>
</g>

<g transform="matrix( 1, 0, 0, 1, 0,0) ">
<use xlink:href="#Layer0_0_FILL"/>
</g>
</svg>
